images_elementary_svg/cmd/sc_printersetup.svg

<?xml version="1.0" encoding="UTF-8" standalone="no"?>
<svg
   xmlns:dc="http://purl.org/dc/elements/1.1/"
   xmlns:cc="http://creativecommons.org/ns#"
   xmlns:rdf="http://www.w3.org/1999/02/22-rdf-syntax-ns#"
   xmlns:svg="http://www.w3.org/2000/svg"
   xmlns="http://www.w3.org/2000/svg"
   xmlns:xlink="http://www.w3.org/1999/xlink"
   xmlns:sodipodi="http://sodipodi.sourceforge.net/DTD/sodipodi-0.dtd"
   xmlns:inkscape="http://www.inkscape.org/namespaces/inkscape"
   height="16"
   width="16"
   version="1.1"
   id="svg20"
   sodipodi:docname="sc_printersetup.svg"
   inkscape:version="0.92.3 (unknown)"
   inkscape:export-filename="/home/rizmut/Dokumen/Rizmut/Github/libreoffice-style-elementary/images_elementary/cmd/sc_printersetup.png"
   inkscape:export-xdpi="96"
   inkscape:export-ydpi="96">
  <metadata
     id="metadata26">
    <rdf:RDF>
      <cc:Work
         rdf:about="">
        <dc:format>image/svg+xml</dc:format>
        <dc:type
           rdf:resource="http://purl.org/dc/dcmitype/StillImage" />
        <dc:title></dc:title>
      </cc:Work>
    </rdf:RDF>
  </metadata>
  <defs
     id="defs24">
    <linearGradient
       inkscape:collect="always"
       xlink:href="#linearGradient3309"
       id="linearGradient3893"
       gradientUnits="userSpaceOnUse"
       gradientTransform="matrix(0.5,0,0,0.5,-0.7790945,7.75)"
       x1="25"
       y1="-11.932203"
       x2="25"
       y2="8.4520321" />
    <linearGradient
       x1="63.9995"
       y1="3.1001"
       x2="63.9995"
       y2="122.8994"
       id="linearGradient3309"
       gradientUnits="userSpaceOnUse">
      <stop
         id="stop3311"
         style="stop-color:#f6f6f6;stop-opacity:1"
         offset="0" />
      <stop
         id="stop3313"
         style="stop-color:#e6e6e6;stop-opacity:1;"
         offset="1" />
    </linearGradient>
    <linearGradient
       inkscape:collect="always"
       xlink:href="#linearGradient3397"
       id="linearGradient3895"
       gradientUnits="userSpaceOnUse"
       gradientTransform="matrix(0.5,0,0,0.5,-0.7790945,7.75)"
       x1="21"
       y1="-10.033898"
       x2="21"
       y2="16.004715" />
    <linearGradient
       id="linearGradient3397">
      <stop
         id="stop3399"
         style="stop-color:#888888;stop-opacity:1;"
         offset="0" />
      <stop
         id="stop3401"
         style="stop-color:#626262;stop-opacity:1;"
         offset="1" />
    </linearGradient>
    <linearGradient
       inkscape:collect="always"
       xlink:href="#linearGradient5128"
       id="linearGradient3897"
       gradientUnits="userSpaceOnUse"
       gradientTransform="matrix(0.04807115,0,0,0.04807115,8.6734468,8.7215181)"
       x1="86.132919"
       y1="105.105"
       x2="84.63858"
       y2="20.895" />
    <linearGradient
       id="linearGradient5128">
      <stop
         id="stop5130"
         style="stop-color:#efefef;stop-opacity:1;"
         offset="0" />
      <stop
         id="stop5132"
         style="stop-color:#c9c9c9;stop-opacity:1;"
         offset="1" />
    </linearGradient>
  </defs>
  <sodipodi:namedview
     pagecolor="#ffffff"
     bordercolor="#666666"
     borderopacity="1"
     objecttolerance="10"
     gridtolerance="10"
     guidetolerance="10"
     inkscape:pageopacity="0"
     inkscape:pageshadow="2"
     inkscape:window-width="1366"
     inkscape:window-height="706"
     id="namedview22"
     showgrid="true"
     inkscape:snap-global="false"
     inkscape:zoom="7.375"
     inkscape:cx="9.841536"
     inkscape:cy="5.3206981"
     inkscape:window-x="0"
     inkscape:window-y="0"
     inkscape:window-maximized="1"
     inkscape:current-layer="svg20">
    <inkscape:grid
       type="xygrid"
       id="grid833" />
  </sodipodi:namedview>
  <path
     d="m 2.8683853,14.499107 c 0.0073,0.359613 0.029665,0.914771 0.3421077,0.991264 3.3005711,0.01952 6.2780675,0.0028 9.579015,0.0084 0.340644,0.01588 0.35312,-0.621029 0.342108,-0.999661 H 2.8683853 Z"
     id="path6"
     inkscape:connector-curvature="0"
     style="fill:#505050;stroke:#565656;stroke-width:0.99970901;stroke-linecap:square"
     sodipodi:nodetypes="cccccc" />
  <g
     id="g14"
     stroke-linecap="round">
    <path
       style="fill:#4f4f4f;fill-opacity:1;fill-rule:evenodd;stroke:none;stroke-width:1px;stroke-linecap:butt;stroke-linejoin:miter;stroke-opacity:1"
       d="M 0.64718248,6.5559297 1.3946059,3.5049857 14.611425,3.5086207 15.325501,6.572335 Z"
       id="path1491"
       inkscape:connector-curvature="0"
       sodipodi:nodetypes="ccccc" />
    <path
       d="M 1.2251892,6.5169154 H 14.774809 c 0.401775,0 0.725226,0.3477098 0.725226,0.7796206 v 6.203498 H 0.49996514 V 7.296536 c 0,-0.4319108 0.32345002,-0.7796206 0.72522406,-0.7796206 z"
       id="path8"
       inkscape:connector-curvature="0"
       style="fill:#4f4f4f;stroke:none;stroke-width:0.99993199;stroke-linejoin:round;fill-opacity:1"
       sodipodi:nodetypes="sssccss" />
    <path
       sodipodi:nodetypes="sssccss"
       style="fill:none;stroke:#393939;stroke-width:0.99993199;stroke-linejoin:round;fill-opacity:1;stroke-opacity:1;opacity:0.71"
       inkscape:connector-curvature="0"
       id="path1474"
       d="M 1.2251892,6.5169154 H 14.774809 c 0.401775,0 0.725226,0.3477098 0.725226,0.7796206 v 6.203498 H 0.49996514 V 7.296536 c 0,-0.4319108 0.32345002,-0.7796206 0.72522406,-0.7796206 z" />
    <rect
       width="2"
       height="2"
       x="12"
       y="8"
       id="rect3991"
       style="color:#000000;display:inline;overflow:visible;visibility:visible;fill:#0cceff;fill-opacity:1;fill-rule:nonzero;stroke:none;stroke-width:1;marker:none;enable-background:accumulate" />
    <path
       sodipodi:nodetypes="ccccc"
       inkscape:connector-curvature="0"
       id="path1493"
       d="M 0.64718248,6.5559297 1.3946059,3.5049857 14.611425,3.5086207 15.325501,6.572335 Z"
       style="opacity:0.7;fill:none;fill-opacity:1;fill-rule:evenodd;stroke:#393939;stroke-width:1px;stroke-linecap:butt;stroke-linejoin:miter;stroke-opacity:1" />
  </g>
  <path
     d="M 13.000007,11 13,14.506356 C 12.999999,14.779835 12.93031,15 12.843749,15 H 3.156243 C 3.069681,15 2.999993,14.779835 2.999993,14.506356 L 3,11 Z"
     id="path16"
     inkscape:connector-curvature="0"
     style="fill:#e9e9e9;stroke-width:1.98724747"
     sodipodi:nodetypes="csssscc" />
  <path
     d="m 3.4834428,0.49813255 9.0262342,0.001739 V 5.3559322 H 3.4834428 Z"
     id="path4"
     inkscape:connector-curvature="0"
     style="fill:#e9e9e9;stroke:#8c8c8c;stroke-width:0.99525303;stroke-linejoin:round"
     sodipodi:nodetypes="ccccc" />
  <g
     id="g3888"
     transform="matrix(1.0513065,-0.43546544,0.43546544,1.0513065,-5.966936,4.2665013)">
    <path
       style="display:block;overflow:visible;visibility:visible;fill:url(#linearGradient3893);fill-opacity:1;fill-rule:nonzero;stroke:url(#linearGradient3895);stroke-width:0.52727503;stroke-linecap:butt;stroke-linejoin:round;stroke-miterlimit:4;stroke-dasharray:none;stroke-dashoffset:0;stroke-opacity:1;marker:none;enable-background:accumulate"
       id="path2426"
       d="M 11.21875,8 C 11.094542,8 11,8.0945411 11,8.21875 v 0.625 c -0.276951,0.0711 -0.525582,0.1859391 -0.765625,0.328125 L 9.78125,8.71875 c -0.087828,-0.087829 -0.224671,-0.087829 -0.3125,0 l -0.75,0.75 c -0.087829,0.087829 -0.087829,0.2246711 0,0.3125 l 0.453125,0.453125 C 9.0296894,10.474418 8.9148505,10.723048 8.84375,11 h -0.625 C 8.0945415,11 8,11.094541 8,11.21875 v 1.0625 C 8,12.405459 8.0945415,12.5 8.21875,12.5 h 0.625 c 0.071101,0.276951 0.1859395,0.525582 0.328125,0.765625 L 8.71875,13.71875 c -0.087829,0.08783 -0.087829,0.224671 0,0.3125 l 0.75,0.75 c 0.087829,0.08783 0.224671,0.08783 0.3125,0 l 0.453125,-0.453125 C 10.474418,14.470311 10.723049,14.58515 11,14.65625 v 0.625 C 11,15.405459 11.094542,15.5 11.21875,15.5 h 1.0625 C 12.405459,15.5 12.5,15.405459 12.5,15.28125 v -0.625 c 0.276951,-0.0711 0.525582,-0.185939 0.765625,-0.328125 l 0.453125,0.453125 c 0.08783,0.08783 0.224671,0.08783 0.3125,0 l 0.75,-0.75 c 0.08783,-0.08783 0.08783,-0.224671 0,-0.3125 L 14.328125,13.265625 C 14.470311,13.025582 14.58515,12.776951 14.65625,12.5 h 0.625 C 15.405459,12.5 15.5,12.405459 15.5,12.28125 v -1.0625 C 15.5,11.094541 15.405459,11 15.28125,11 h -0.625 c -0.0711,-0.276952 -0.185939,-0.525582 -0.328125,-0.765625 L 14.78125,9.78125 c 0.08783,-0.087829 0.08783,-0.224671 0,-0.3125 l -0.75,-0.75 c -0.08783,-0.087829 -0.224671,-0.087829 -0.3125,0 L 13.265625,9.171875 C 13.025582,9.0296891 12.776951,8.9148503 12.5,8.84375 v -0.625 C 12.5,8.0945411 12.405459,8 12.28125,8 Z M 11.75,10.75 c 0.552,0 1,0.448 1,1 0,0.552 -0.448,1 -1,1 -0.552,0 -1,-0.448 -1,-1 0,-0.552 0.448,-1 1,-1 z"
       inkscape:connector-curvature="0" />
    <path
       style="opacity:0.05;fill:#000000;fill-opacity:1;stroke:none"
       id="path3315"
       d="m 11.75,9.482558 c -1.250289,0 -2.2674419,1.017154 -2.2674419,2.267442 0,1.250289 1.0171529,2.267442 2.2674419,2.267442 1.250288,0 2.267442,-1.017153 2.267442,-2.267442 0,-1.250288 -1.017154,-2.267442 -2.267442,-2.267442 z m 0,1.046512 c 0.673954,0 1.22093,0.546977 1.22093,1.22093 0,0.673954 -0.546976,1.22093 -1.22093,1.22093 -0.673953,0 -1.22093,-0.546976 -1.22093,-1.22093 0,-0.673953 0.546977,-1.22093 1.22093,-1.22093 z"
       inkscape:connector-curvature="0" />
    <path
       style="fill:none;stroke:url(#linearGradient3897);stroke-width:0.87879175;stroke-miterlimit:4;stroke-dasharray:none"
       id="path28"
       d="m 11.75,9.75 c -1.1028,0 -2,0.8972 -2,2 0,1.1028 0.8972,2 2,2 1.1028,0 2,-0.8972 2,-2 0,-1.1028 -0.8972,-2 -2,-2 z"
       inkscape:connector-curvature="0" />
  </g>
</svg>

<svg xmlns="http://www.w3.org/2000/svg" xmlns:xlink="http://www.w3.org/1999/xlink" height="16" width="16"><defs><linearGradient xlink:href="#a" id="d" gradientUnits="userSpaceOnUse" gradientTransform="matrix(.5 0 0 .5 -.8 7.8)" x1="25" y1="-11.932" x2="25" y2="8.452"/><linearGradient x1="63.999" y1="3.1" x2="63.999" y2="122.899" id="a" gradientUnits="userSpaceOnUse"><stop offset="0" stop-color="#f6f6f6"/><stop offset="1" stop-color="#e6e6e6"/></linearGradient><linearGradient xlink:href="#b" id="e" gradientUnits="userSpaceOnUse" gradientTransform="matrix(.5 0 0 .5 -.8 7.8)" x1="21" y1="-10.034" x2="21" y2="16.005"/><linearGradient id="b"><stop offset="0" stop-color="#888"/><stop offset="1" stop-color="#626262"/></linearGradient><linearGradient xlink:href="#c" id="f" gradientUnits="userSpaceOnUse" gradientTransform="matrix(0 0 0 0 8.7 8.7)" x1="86.133" y1="105.105" x2="84.639" y2="20.895"/><linearGradient id="c"><stop offset="0" stop-color="#efefef"/><stop offset="1" stop-color="#c9c9c9"/></linearGradient></defs><path d="M2.868 14.5c.008.36.03.914.342.99 3.3.02 6.28.003 9.58.01.34.015.353-.622.342-1H2.868z" fill="#505050" stroke="#565656" stroke-linecap="square"/><g stroke-linecap="round"><path d="M.647 6.556l.748-3.05 13.216.003.716 3.062z" fill="#4f4f4f" fill-rule="evenodd"/><path d="M1.225 6.517h13.55c.402 0 .725.348.725.78V13.5H.5V7.297c0-.432.323-.78.725-.78z" fill="#4f4f4f"/><path d="M1.225 6.517h13.55c.402 0 .725.348.725.78V13.5H.5V7.297c0-.432.323-.78.725-.78z" fill="none" stroke="#393939" stroke-linejoin="round" opacity=".71"/><path color="#000" overflow="visible" fill="#0cceff" d="M12 8h2v2h-2z"/><path d="M.647 6.556l.748-3.05 13.216.003.716 3.062z" opacity=".7" fill="none" stroke="#393939" stroke-linecap="butt"/></g><path d="M13 11v3.506c0 .274-.07.494-.156.494H3.156C3.07 15 3 14.78 3 14.506V11z" fill="#e9e9e9"/><path d="M3.483.498L12.51.5v4.856H3.483z" fill="#e9e9e9" stroke="#8c8c8c" stroke-width=".995" stroke-linejoin="round"/><path d="M11.22 8c-.125 0-.22.095-.22.22v.624c-.277.07-.526.186-.766.328L9.78 8.72c-.087-.09-.223-.09-.31 0l-.75.75c-.09.087-.09.223 0 .31l.452.454c-.142.24-.257.49-.328.766H8.22c-.125 0-.22.095-.22.22v1.06c0 .125.095.22.22.22h.624c.07.277.186.526.328.766l-.453.453c-.09.087-.09.223 0 .31l.75.75c.087.09.223.09.31 0l.454-.452c.24.142.49.257.766.328v.625c0 .125.095.22.22.22h1.06c.125 0 .22-.095.22-.22v-.624c.277-.07.526-.186.766-.328l.453.453c.087.09.223.09.31 0l.75-.75c.09-.087.09-.223 0-.31l-.452-.454c.142-.24.257-.49.328-.766h.625c.125 0 .22-.095.22-.22v-1.06c0-.125-.095-.22-.22-.22h-.624c-.07-.277-.186-.526-.328-.766l.453-.453c.09-.087.09-.223 0-.31l-.75-.75c-.087-.09-.223-.09-.31 0l-.454.452c-.24-.142-.49-.257-.766-.328V8.22c0-.125-.095-.22-.22-.22zm.53 2.75c.552 0 1 .448 1 1s-.448 1-1 1-1-.448-1-1 .448-1 1-1z" display="block" overflow="visible" fill="url(#d)" stroke="url(#e)" stroke-width=".527" stroke-linejoin="round" transform="matrix(1.1 -.4 .4 1.1 -6 4.3)"/><path d="M10.718 10.03c-1.375.5-2.087 2.027-1.587 3.402.5 1.375 2.027 2.087 3.402 1.587 1.375-.5 2.087-2.027 1.587-3.402-.5-1.375-2.027-2.087-3.402-1.587zm.42 1.152c.74-.27 1.56.113 1.83.855.27.74-.113 1.56-.855 1.83-.74.27-1.56-.112-1.83-.854-.27-.74.112-1.56.854-1.83z" opacity=".05"/><path d="M11.75 9.75c-1.103 0-2 .897-2 2s.897 2 2 2 2-.897 2-2-.897-2-2-2z" fill="none" stroke="url(#f)" stroke-width=".879" transform="matrix(1.1 -.4 .4 1.1 -6 4.3)"/></svg>
